vivaldi-source/chromium/chrome/browser/resources/chromeos/wallpaper_manager/images/ui/current_wallpaper_refresh.svg

<svg xmlns="http://www.w3.org/2000/svg" width="16" height="16" viewBox="0 0 16 16">
  <g fill="none" fill-rule="evenodd">
    <path fill="#1A73E8" fill-rule="nonzero" d="M11.7666667,4.23333333 C10.8033333,3.26666667 9.47333333,2.66666667 8,2.66666667 C5.05333333,2.66666667 2.67333333,5.05333333 2.67333333,8 C2.67333333,10.9466667 5.05333333,13.3333333 8,13.3333333 C10.4833333,13.3333333 12.5633333,11.6333333 13.1533333,9.33333333 L11.7666667,9.33333333 C11.2166667,10.8866667 9.74333333,12 8,12 C5.79,12 4,10.21 4,8 C4,5.79 5.79,4 8,4 C9.10333333,4 10.0933333,4.46 10.8166667,5.18333333 L8.66666667,7.33333333 L13.3333333,7.33333333 L13.3333333,2.66666667 L11.7666667,4.23333333 Z"/>
    <polygon points="0 0 16 0 16 16 0 16"/>
  </g>
</svg>

<svg xmlns="http://www.w3.org/2000/svg" width="16" height="16" viewBox="0 0 16 16"><g fill="none" fill-rule="evenodd"><path fill="#1A73E8" fill-rule="nonzero" d="M11.767 4.233A5.3 5.3 0 0 0 8 2.667 5.326 5.326 0 0 0 2.673 8 5.326 5.326 0 0 0 8 13.333c2.483 0 4.563-1.7 5.153-4h-1.386A3.994 3.994 0 0 1 8 12c-2.21 0-4-1.79-4-4s1.79-4 4-4c1.103 0 2.093.46 2.817 1.183l-2.15 2.15h4.666V2.667l-1.566 1.566Z"/><path d="M0 0h16v16H0z"/></g></svg>
